logo/k3.svg

<svg fill="none" height="60" viewBox="0 0 60 60" width="60" xmlns="http://www.w3.org/2000/svg"><rect fill="#f8f8fd" height="60" rx="30" width="60"/><path d="m11.8 40.899v.2h.2 3.0746.2v-.2-7.7784l3.5755-3.4051 8.139 11.3004.0598.0831h.1024 4.0573.4012l-.2415-.3204-10.0671-13.356 9.6167-9.0726.3662-.3454h-.5034-4.1682-.0814l-.0583.0568-11.1982 10.923v-10.7798-.2h-.2-3.0746-.2v.2zm22.9129-.1264.0011.0008c1.485.9525 3.1894 1.4266 5.1066 1.4266 1.608 0 3.0474-.3337 4.3133-1.0062l.0011-.0006c1.2833-.6915 2.2841-1.6132 2.9965-2.7657l.0008-.0014c.7123-1.1741 1.0677-2.4784 1.0677-3.9083 0-2.0129-.6555-3.6921-1.9718-5.022-1.2156-1.2686-2.7838-2.0326-4.6928-2.298l5.581-6.8522.0449-.0552v-.0711-2.2193-.2h-.2-14.0543-.2v.2 2.2193.2h.2 10.7147l-6.2613 7.7589-.0785.0973.053.1131.5193 1.1097.0633.1351.1476-.0221c.5521-.083 1.1264-.1246 1.723-.1246 1.6047 0 2.8958.4525 3.8914 1.3439l.0015.0014c1.0102.886 1.5223 2.1061 1.5223 3.6858 0 1.6031-.5029 2.8339-1.4914 3.7189l-.0015.0014c-.9728.8896-2.2626 1.3426-3.8898 1.3426-1.3268 0-2.4994-.3387-3.5243-1.0126-1.0258-.6956-1.7796-1.6356-2.2627-2.8256l-.0786-.1936-.19.087-2.0773.9511-.1691.0774.0649.1742c.6205 1.6668 1.6646 2.9802 3.1294 3.934z" fill="#020215" stroke="#020215" stroke-width=".4"/></svg>

<svg width="60" height="60" viewBox="0 0 60 60" fill="none" xmlns="http://www.w3.org/2000/svg">
    <rect width="60" height="60" rx="30" fill="#F8F8FD"/>
    <path d="M11.8 40.899V41.099H12H15.0746H15.2746V40.899V33.1206L18.8501 29.7155L26.9891 41.0159L27.0489 41.099H27.1513H31.2086H31.6098L31.3683 40.7786L21.3012 27.4226L30.9179 18.35L31.2841 18.0046H30.7807H26.6125H26.5311L26.4728 18.0614L15.2746 28.9844V18.2046V18.0046H15.0746H12H11.8V18.2046V40.899ZM34.7129 40.7726L34.714 40.7734C36.199 41.7259 37.9034 42.2 39.8206 42.2C41.4286 42.2 42.868 41.8663 44.1339 41.1938L44.135 41.1932C45.4183 40.5017 46.4191 39.58 47.1315 38.4275L47.1323 38.4261C47.8446 37.252 48.2 35.9477 48.2 34.5178C48.2 32.5049 47.5445 30.8257 46.2282 29.4958C45.0126 28.2272 43.4444 27.4632 41.5354 27.1978L47.1164 20.3456L47.1613 20.2904V20.2193V18V17.8H46.9613H32.907H32.707V18V20.2193V20.4193H32.907H43.6217L37.3604 28.1782L37.2819 28.2755L37.3349 28.3886L37.8542 29.4983L37.9175 29.6334L38.0651 29.6113C38.6172 29.5283 39.1915 29.4867 39.7881 29.4867C41.3928 29.4867 42.6839 29.9392 43.6795 30.8306L43.681 30.832C44.6912 31.718 45.2033 32.9381 45.2033 34.5178C45.2033 36.1209 44.7004 37.3517 43.7119 38.2367L43.7104 38.2381C42.7376 39.1277 41.4478 39.5807 39.8206 39.5807C38.4938 39.5807 37.3212 39.242 36.2963 38.5681C35.2705 37.8725 34.5167 36.9325 34.0336 35.7425L33.955 35.5489L33.765 35.6359L31.6877 36.587L31.5186 36.6644L31.5835 36.8386C32.204 38.5054 33.2481 39.8188 34.7129 40.7726Z"
          fill="#020215" stroke="#020215" stroke-width="0.4"/>
</svg>
